X: 2306
T: the LAIRD O' COCKPEN
R: Scotch Jig
M: 6/8
L: 1/8
B: James Kerr "Merry Melodies" v.2 p.34 #306
Z: 2000, 2016 John Chambers <jc:trillian.mit.edu>
B: RSCDS Graded #7
K: Em
uB, |\
vEFE uG2uG | FDD uD2uF | EFE e2e | dBB B2c |\
ded dcB | ABG FGA | BcB BAB | GEE E2 :|
|: uB |\
efe efg | fdd ud2uf | eef gfe | dBB B2c |\
ded dcB | ABG FGA | BcB BAB | GEE E2 :|
